X: 23224
T: Leaping Trout, The
R: jig
M: 6/8
K: Dmajor
E|:D2 F EDB,|D2 F EDB,|~A2F ABd|~ f2e ede|
f2a e2f|d2f edA|BdB AFE|1 FDD D2A,:|2 FDD D2e||
|:f2d dBA|~B2A Bcd|~f3 ede|faa ~f2e|
fdd Add|efd BAF|BdB AFE|1 FDD D2e:|2 FDD DB,A,||

